X: 36120
T: Scolding Wife, The
R: reel
M: 4/4
K: Dmajor
D2AD FAdF|A2FA dBAF|D2AD FAdA|BdAF GBAF|
D2AD FAdF|A2FA dBAF|D2AD FAdA|BdAF GBeg||
fddc dfaf|gbaf gfeg|fddc defd|ecAF G2eg|
fddc dfaf|gbaf gfeg|fddc defd|ecAF GBAF||

